X: 1
T: Oak Leaf Reel
C: Susie Secco 1997
R: reel
Z: 2005 John Chambers <jc:trillian.mit.edu>
M: C|
L: 1/8
K: Bm
   ag \
| "Bm"fBBf edcB | "G"GBdB "A"Acag | "Bm"fBBf    edcB | "G"GBdB  "A"A2ag |
| "Bm"fBBf edcB | "G"GBdB "A"Acag | "Bm"fBBf "G"edcB | "A"edcd "Bm"B2  :|
|: zF \
| "G"G2GF GAB2 | "A"Acdc dcBA |  "G"G2GF    GAB2 | "A"B2AE "Bm"F3"(F#m)"F |
| "G"G2GF GAB2 | "A"Acdc dcde | "Bm"fedf "A"edcA | "G"B2BA "Bm"B2        :|
